X:1
T:Blind Fiddler
M:4/4
L:1/8
K:Db
 D| FF E D/2E/2 FF B, B,/2B,/2| DE B,=A, B,3 A| B3/2 c/2 BA F A3| DD AA F2 z A|\
 B3/2 c/2 BA F3 A| D3/2 D/2 AA F3 B,| B,2 DE F2 BF| E/2- D3/2 B,A, B,2 z|\
